testimages/epl-icon.svg

<?xml version="1.0" encoding="UTF-8"?>
<svg width="330px" height="420px" viewBox="0 0 330 420" version="1.1" xmlns="http://www.w3.org/2000/svg" xmlns:xlink="http://www.w3.org/1999/xlink">
    <!-- Generator: Sketch 39.1 (31720) - http://www.bohemiancoding.com/sketch -->
    <title>epl-icon</title>
    <desc>Created with Sketch.</desc>
    <defs>
        <linearGradient x1="50%" y1="0%" x2="50%" y2="100%" id="linearGradient-1">
            <stop stop-color="#66076D" offset="0%"></stop>
            <stop stop-color="#36033B" offset="100%"></stop>
        </linearGradient>
    </defs>
    <g id="Page-1" stroke="none" stroke-width="1" fill="none" fill-rule="evenodd">
        <g id="icon" transform="translate(-235.000000, -90.000000)" fill="url(#linearGradient-1)">
            <path d="M353.708011,233.708008 C360.701175,224.020508 369.531256,218.03125 380.508792,214.764648 C377.484381,210.699219 377.064456,210.317383 372.413086,207.419922 C380.508792,200.407227 396.245914,188.889648 426.829102,184.935547 C442.629886,190.886719 454.6211,201.064453 463.052737,207.419922 C466.959964,201.064453 468.352542,196.810547 468.72168,189.485352 C485.970706,195.27832 501.743139,209.115234 517.545886,224.020508 C510.337878,207.419922 506.901367,199.103515 506.901367,188.889648 C493.077136,174.689453 472.515628,166.988281 453.468753,161.856445 C455.912112,166.988281 458.46094,176.783203 456.985352,180.501953 C452.243167,174.120117 439.233404,162.422852 431.093753,158.381836 C400.231448,156.854492 368.3418,158.381836 332.853519,177.172851 C348.011722,180.501954 354.635748,190.640625 357.234378,198.561522 C344.320315,188.889649 329.358401,188.445312 321.171878,196.810546 C312.985355,205.17578 313.274417,222.707034 322.203125,240.900391 C298.880862,227.508792 303.819339,202.159179 308.955078,190.886719 C287.578124,204.839843 258.839843,239.907229 252.486327,258.326175 C258.839843,259.538089 263.283202,260.347659 271.304688,261.821289 C252.486327,284.694339 236.179688,319.477542 235,351.319339 C246.157227,347.845706 255.741211,344.447268 265.581055,342.118164 C254.043945,382.706058 267.451172,440.816409 276.572266,453.423828 C292.776367,443.025393 318.912106,411.180664 328.200195,394.887695 C339.207031,431.68555 335.09668,468.110357 328.200195,495.454104 C359.56543,512.829107 414.266602,520.266604 468.352539,483.417969 C470.586914,492.030276 472.515625,499.798831 474.380859,506.821289 C524.383789,474.489261 538.220715,424.911136 539.729492,400.390628 C544.741211,405.676761 545.783203,408.566409 554.223633,416.347656 C578.038086,346.02637 556.514648,291.0293 526.515369,250.408936 C526.515356,253.441162 526.515369,258.128906 525.491931,260.347656 C520.115234,255.486331 517.545898,252.280276 512.124023,246.049805 C513.917725,245.295169 516.623047,243.046392 517.545898,241.185061 C516.315918,236.17481 514.665527,230.788333 509.691162,227.839847 C506.015625,228.503665 499.622083,232.967773 498.237305,235.337891 C493.80957,232.967776 489.801758,229.51026 481.793457,225.503177 C486.960205,234.718267 491.070068,238.046878 492.87915,243.15137 C497.166016,248.166018 512.959473,258.20899 518.885986,267.049808 C504.97168,260.230474 480.957028,262.079104 471.935547,267.049808 C460.015381,252.158941 452.144775,245.389163 447.067383,240.698242 C446.031253,235.337891 448.987793,227.839847 453.46875,224.020508 C444.924561,225.503177 440.839844,227.254397 436.986328,231.268555 C427.563965,225.503177 419.283691,220.157714 410.041016,218.341308 C401.510254,219.335937 385.914062,227.839847 381.81543,232.843753 C387.805664,237.706058 397.337888,243.151367 405.599609,243.151367 C413.861331,243.151367 423.937497,241.119141 429.858398,244.469727 C435.7793,247.820312 447.067386,259.292969 457.137695,271.243164 C451.62598,269.916992 440.215823,264.869141 419.788089,267.049805 C399.360355,269.230469 369.78223,264.25 368.341797,235.602539 C361.5293,235.602539 360.701178,235.733398 353.708011,233.708008 Z M421.5625,308.018555 C427.867188,299.65332 457.044923,283.179688 471.886719,281.282227 C478.596681,287.4375 486.09375,290.491211 493.310547,293.923828 C493.668942,301.140625 493.310544,311.949219 493.310544,317.480469 C485.949216,325.49707 454.41797,347.782227 441.18457,344.713867 C436.244141,336.709961 427.867188,321.335938 421.5625,308.018555 Z M507.185547,294.358398 C511.49707,291.125977 518.522461,286.185547 523.556641,282.770508 C528.046875,288.270508 536.335937,324.317383 524.668945,342.661133 C515.782227,324.317383 513.050293,326.603516 507.064453,318.294922 C507.064453,307.989258 507.064453,298.080078 507.185547,294.358398 Z M450.481445,363.15918 C456.797852,363.15918 478.246094,353.195312 488.203125,341.632813 C493.537109,341.632812 502.850586,341.632813 506.953125,341.632813 C510.90918,345.891602 516.227539,356.336914 516.227539,360.192383 C514.178223,372.644043 506.339844,389.890625 492.923828,398.087891 C493.796387,392.701172 492.923828,379.63623 490.674805,370.958008 C485.32666,377.79834 472.875,383.562012 462.888672,385.535156 C458.701172,379.86133 453.759766,370.339844 450.481445,363.15918 Z M322.479492,171.055664 C321.371094,165.916992 309.402344,134.820312 299.925781,125.151367 C312.779297,130.99707 324.583008,138.612305 332.125,145.875 C329.617188,129.586914 326.837891,112.524414 325.62793,103.416992 C338.208984,112.524414 361.475586,129.586914 369.689453,134.557617 C374.010742,125.151367 381.583008,99.3808594 384.810547,90 C390.62207,99.3808594 404.509766,122.641602 409.6875,129.586914 C414.536133,125.151367 441.12793,93.7617188 446.125,90.0537109 C447.422852,106.059571 447.958008,121.544921 447.958008,133.305663 C454.677734,124.085935 466.124023,110.551759 476.079102,104.662109 C468.017578,120.04004 464.78418,135.786132 464.78418,152.867188 C415.727539,140.754882 361.742188,145.874999 322.479492,171.055664 Z" id="epl-icon"></path>
        </g>
    </g>
</svg>

<svg width="330" height="420" xmlns="http://www.w3.org/2000/svg"><defs><linearGradient x1="50%" y1="0%" x2="50%" y2="100%" id="a"><stop stop-color="#66076D" offset="0%"/><stop stop-color="#36033B" offset="100%"/></linearGradient></defs><path d="M353.708 233.708c6.993-9.687 15.823-15.677 26.8-18.943-3.024-4.066-3.444-4.448-8.095-7.345 8.096-7.013 23.833-18.53 54.416-22.484 15.8 5.95 27.792 16.128 36.224 22.484 3.907-6.356 5.3-10.61 5.669-17.935 17.249 5.793 33.021 19.63 48.824 34.536-7.208-16.601-10.645-24.917-10.645-35.131-13.824-14.2-34.385-21.902-53.432-27.034 2.443 5.132 4.992 14.927 3.516 18.646-4.742-6.382-17.752-18.08-25.891-22.12-30.863-1.528-62.752 0-98.24 18.79 15.158 3.33 21.782 13.469 24.38 21.39-12.914-9.672-27.876-10.117-36.062-1.751-8.187 8.365-7.898 25.896 1.031 44.09-23.322-13.392-18.384-38.742-13.248-50.014-21.377 13.953-50.115 49.02-56.469 67.44 6.354 1.211 10.797 2.02 18.819 3.494-18.819 22.873-35.125 57.657-36.305 89.498 11.157-3.473 20.741-6.872 30.581-9.2-11.537 40.587 1.87 98.697 10.991 111.305 16.204-10.399 42.34-42.243 51.628-58.536 11.007 36.798 6.897 73.222 0 100.566 31.365 17.375 86.067 24.813 140.153-12.036 2.234 8.612 4.163 16.38 6.028 23.403 50.003-32.332 63.84-81.91 65.348-106.43 5.012 5.286 6.054 8.175 14.495 15.957 23.814-70.322 2.29-125.319-27.709-165.94 0 3.033 0 7.72-1.023 9.94-5.377-4.862-7.946-8.068-13.368-14.298 1.794-.755 4.499-3.004 5.422-4.865-1.23-5.01-2.88-10.397-7.855-13.345-3.675.664-10.069 5.128-11.454 7.498-4.427-2.37-8.435-5.828-16.444-9.835 5.167 9.215 9.277 12.544 11.086 17.648 4.287 5.015 20.08 15.058 26.007 23.899-13.914-6.82-37.929-4.97-46.95 0-11.92-14.891-19.791-21.66-24.869-26.352-1.036-5.36 1.92-12.858 6.402-16.677-8.544 1.482-12.63 3.233-16.483 7.248-9.422-5.766-17.702-11.111-26.945-12.928-8.53.995-24.127 9.499-28.226 14.503 5.99 4.862 15.523 10.307 23.785 10.307 8.261 0 18.337-2.032 24.258 1.319 5.921 3.35 17.21 14.823 27.28 26.773-5.512-1.326-16.922-6.374-37.35-4.193-20.428 2.18-50.006-2.8-51.446-31.447-6.813 0-7.64.13-14.634-1.895zm67.854 74.31c6.305-8.365 35.483-24.838 50.325-26.736 6.71 6.156 14.207 9.21 21.424 12.642.358 7.217 0 18.025 0 23.556-7.362 8.017-38.893 30.302-52.126 27.234-4.94-8.004-13.318-23.378-19.623-36.695zm85.624-13.66c4.311-3.232 11.336-8.172 16.37-11.587 4.49 5.5 12.78 41.546 1.113 59.89-8.887-18.344-11.619-16.057-17.605-24.366 0-10.306 0-20.215.122-23.937zM450.48 363.16c6.317 0 27.765-9.964 37.722-21.526h18.75c3.956 4.259 9.275 14.704 9.275 18.56-2.05 12.451-9.888 29.698-23.304 37.895.872-5.387 0-18.452-2.25-27.13-5.347 6.84-17.799 12.604-27.785 14.577-4.188-5.674-9.13-15.195-12.408-22.376zM322.48 171.056c-1.108-5.139-13.077-36.236-22.553-45.905 12.853 5.846 24.657 13.461 32.199 20.724-2.508-16.288-5.287-33.35-6.497-42.458 12.581 9.107 35.848 26.17 44.061 31.14 4.322-9.406 11.894-35.176 15.122-44.557 5.811 9.38 19.699 32.642 24.877 39.587 4.848-4.436 31.44-35.825 36.437-39.533 1.298 16.006 1.833 31.49 1.833 43.252 6.72-9.22 18.166-22.754 28.121-28.644-8.061 15.378-11.295 31.124-11.295 48.205-49.056-12.112-103.042-6.992-142.305 18.189z" transform="translate(-235 -90)" fill="url(#a)" fill-rule="evenodd"/></svg>
